dist/svg/email.svg

<!-- Generated by Trend Micro Style Portal -->
<svg version="1.1" xmlns="http://www.w3.org/2000/svg" width="16" height="16" viewBox="0 0 16 16">
  <title>email</title>
  <path fill="rgb(34,34,34)" d="M8 8.75l8-5.55v-0.2c0-0.552-0.448-1-1-1v0h-14c-0.552 0-1 0.448-1 1v0 0.19z"></path>
  <path fill="rgb(34,34,34)" d="M8 10l-8-5.54v8.54c0 0.552 0.448 1 1 1v0h14c0.552 0 1-0.448 1-1v0-8.54z"></path>
</svg>

<svg width="16" height="16" viewBox="0 0 16 16" fill="rgb(34, 34, 34)" xmlns="http://www.w3.org/2000/svg"><title>email</title><path d="M8 8.75L16 3.2V3C16 2.448 15.552 2 15 2H1C0.448 2 0 2.448 0 3V3.19L8 8.75Z" fill="rgb(34, 34, 34)" fill-opacity="1.00"/><path d="M8 10L0 4.46V13C0 13.552 0.448 14 1 14H15C15.552 14 16 13.552 16 13V4.46L8 10Z" fill="rgb(34, 34, 34)" fill-opacity="1.00"/></svg>
